X: 12358
T: Falls Of Richmond
R: reel
M: 4/4
K: Adorian
|:EG A2 A2 AA|G2 AB cBAE|EG A2 A2 AA|BAGE A2 AA|
EG A2 A2 AA|G2 AB c2 d2|e2 e2 Acec|BAGE A2 AA:|
|:e2 e2 Acec|BAGA c2 d2|e2 e2 Acec|BAGE A2 AA:|
|:(e a3) a2 aa|c'aaa baaa|(e a3) a2 aa|c'aba a4:|
|:e2 e2 Acec|BAGA c2 d2|e2 e2 Acec|BAGE A2 AA:|

